X: 17402
T: High Top, The
R: polka
M: 2/4
K: Amajor
|:a2 e/f/e/d/|cd B>A|GA Bc|de fg|
a2 e/f/e/d/|cd B>A|GB FG|1 A2 Ae:|2 A2 e>d||
|:ce e/f/e/d/|Bc d>e|dB cd|e2 d>B|
[1 ce e/f/e/d/|Bc d>e|dB GB|A2 A>B:|
[2 ce B>c|df B>A|GE FG|A2 Ae||

